svgs/thin/xmark-to-slot.svg

<svg xmlns="http://www.w3.org/2000/svg" viewBox="0 0 576 512"><!--! Font Awesome Pro 6.3.0 by @fontawesome - https://fontawesome.com License - https://fontawesome.com/license (Commercial License) Copyright 2023 Fonticons, Inc. --><path d="M104 368c4.406 0 8-3.594 8-8v-288c0-13.22 10.78-24 24-24h304c13.22 0 24 10.78 24 24v288c0 4.406 3.594 8 8 8S480 364.4 480 360v-288C480 49.94 462.1 32 440 32h-304C113.9 32 96 49.94 96 72v288C96 364.4 99.59 368 104 368zM56 416c0 4.406 3.594 8 8 8h448c4.406 0 8-3.594 8-8s-3.594-8-8-8H64C59.59 408 56 411.6 56 416zM536 352h-16C515.6 352 512 355.6 512 360s3.594 8 8 8h16c13.22 0 24 10.78 24 24v48c0 13.22-10.78 24-24 24H40c-13.22 0-24-10.78-24-24v-48c0-13.22 10.78-24 24-24h16C60.41 368 64 364.4 64 360S60.41 352 56 352h-16C17.94 352 0 369.9 0 392v48C0 462.1 17.94 480 40 480h496c22.06 0 40-17.94 40-40v-48C576 369.9 558.1 352 536 352zM210.3 285.7c3.127 3.125 8.186 3.125 11.31 0L288 219.3l66.34 66.34c3.127 3.125 8.186 3.125 11.31 0c3.125-3.125 3.125-8.188 0-11.31L299.3 208l66.34-66.34c3.125-3.125 3.125-8.188 0-11.31s-8.188-3.125-11.31 0L288 196.7L221.7 130.3c-3.125-3.125-8.188-3.125-11.31 0s-3.125 8.188 0 11.31L276.7 208L210.3 274.3C207.2 277.5 207.2 282.5 210.3 285.7z"/></svg>

<svg xmlns="http://www.w3.org/2000/svg" viewBox="0 0 576 512"><!-- Font Awesome Pro 6.0.0-alpha2 by @fontawesome - https://fontawesome.com License - https://fontawesome.com/license (Commercial License) --><path d="M104 368C108.406 368 112 364.406 112 360V72C112 58.781 122.781 48 136 48H440C453.219 48 464 58.781 464 72V360C464 364.406 467.594 368 472 368S480 364.406 480 360V72C480 49.938 462.062 32 440 32H136C113.938 32 96 49.938 96 72V360C96 364.406 99.594 368 104 368ZM56 416C56 420.406 59.594 424 64 424H512C516.406 424 520 420.406 520 416S516.406 408 512 408H64C59.594 408 56 411.594 56 416ZM536 352H520C515.594 352 512 355.594 512 360S515.594 368 520 368H536C549.219 368 560 378.781 560 392V440C560 453.219 549.219 464 536 464H40C26.781 464 16 453.219 16 440V392C16 378.781 26.781 368 40 368H56C60.406 368 64 364.406 64 360S60.406 352 56 352H40C17.938 352 0 369.938 0 392V440C0 462.062 17.938 480 40 480H536C558.062 480 576 462.062 576 440V392C576 369.938 558.062 352 536 352ZM210.344 285.656C213.471 288.781 218.529 288.781 221.656 285.656L288 219.312L354.344 285.656C357.471 288.781 362.529 288.781 365.656 285.656C368.781 282.531 368.781 277.469 365.656 274.344L299.312 208L365.656 141.656C368.781 138.531 368.781 133.469 365.656 130.344S357.469 127.219 354.344 130.344L288 196.688L221.656 130.344C218.531 127.219 213.469 127.219 210.344 130.344S207.219 138.531 210.344 141.656L276.688 208L210.344 274.344C207.219 277.469 207.219 282.531 210.344 285.656Z"/></svg>
